src/icons/bithound.svg

<svg fill-opacity=".05" viewBox="0 0 400 400" xml:space="preserve" xmlns="http://www.w3.org/2000/svg"><g fill="#e53935" fill-opacity="1"><path d="M350.738 186.163c-1.32-13.024-4.224-26.312-8.36-38.72-11.88-35.464-33.968-71.808-61.864-96.888-1.232-1.056-5.896-3.872-7.656-2.904-4.576 2.552 4.048 20.064 5.104 23.232 6.512 19.36 10.648 39.864 5.984 60.104-6.248 26.752-26.752 45.496-54.12 47.784-15.048 1.232-30.184-.44-45.232 1.32-22.528 2.64-45.496 10.384-59.84 28.864-1.672 2.112-3.168 4.488-4.576 6.952h-.352c-5.544.616-11.088-1.76-13.816-3.256-.704-.44-1.408-.792-1.936-1.056-16.72-9.24-29.04-29.92-36.608-46.992-3.432-7.92-6.336-16.192-8.184-24.552-.88-3.784-.968-7.744-1.144-11.616-.088-2.376.264-5.72-1.056-7.832-2.904-4.576-6.6-.176-7.216 3.52-.968 6.072-1.848 12.056-1.584 18.216.44 10.384 3.344 20.68 7.04 30.36 5.456 14.256 13.112 27.368 23.056 39.072 4.136 4.84 8.536 9.328 13.288 13.464 4.224 3.784 9.592 6.776 12.76 11.616 3.696 5.544 4.312 12.408 3.96 18.832-.88 16.984-1.408 32.912 3.432 49.456 4.224 14.696 9.504 29.744 18.304 42.328 4.4 6.248 9.856 12.848 15.84 17.512 4.048 3.168 11.704 3.52 7.304-8.096-9.768-25.784-10.648-52.536 4.576-76.648 12.76-20.064 35.288-37.928 60.72-34.76 37.4 4.664 63.448 38.984 61.6 75.68-.528 10.296-.88 19.096-4.136 28.776-1.32 3.872-2.288 8.8-1.32 12.848 1.584 6.864 9.24 4.312 12.584-.176 9.064-12.32 18.568-24.288 27.104-36.96 27.808-41.536 41.36-89.584 36.344-139.48z"/><path d="M141.21 85.051c.616 2.024 1.232 4.224 1.672 6.6.088.968.352 2.024.88 2.992 2.288 5.984 7.832 9.24 13.024 12.32 3.168 1.936 8.888 3.784 12.408 5.192 4.576 1.848 14.432-.528 19.096-.88 10.736-.88 20.68-4.664 30.536 1.056-50.512 59.224-2.816 72.424 34.144 43.912 42.24-32.56 2.464-109.384 2.464-109.384s-.88-5.984-16.896-9.504a51.52 51.52 0 0 0-4.488-2.112c-15.84-7.304-30.096 4.664-41.536 14.432-3.344 2.816-6.6 5.632-10.12 8.272-4.752 3.52-9.856 6.424-15.224 8.976-5.632 2.64-12.32 5.632-18.568 5.896-.88 0-2.552.176-4.312.528-2.728.264-4.136.968-4.752 2.2-1.056.88-1.76 2.112-1.584 3.696.176 2.2 1.232 4.048 2.376 5.456.352.088.616.264.88.352z"/></g></svg>

<svg viewBox="0 0 400 400" xmlns="http://www.w3.org/2000/svg">
  <path
    d="M350.738 186.163C349.418 173.139 346.514 159.851 342.378 147.443C330.498 111.979 308.41 75.635 280.514 50.555C279.282 49.499 274.618 46.683 272.858 47.651C268.282 50.203 276.906 67.715 277.962 70.883C284.474 90.243 288.61 110.747 283.946 130.987C277.698 157.739 257.194 176.483 229.826 178.771C214.778 180.003 199.642 178.331 184.594 180.091C162.066 182.731 139.098 190.475 124.754 208.955C123.082 211.067 121.586 213.443 120.178 215.907H119.826C114.282 216.523 108.738 214.147 106.01 212.651C105.306 212.211 104.602 211.859 104.074 211.595C87.354 202.355 75.034 181.675 67.466 164.603C64.034 156.683 61.13 148.411 59.282 140.051C58.402 136.267 58.314 132.307 58.138 128.435C58.05 126.059 58.402 122.715 57.082 120.603C54.178 116.027 50.482 120.427 49.866 124.123C48.898 130.195 48.018 136.179 48.282 142.339C48.722 152.723 51.626 163.019 55.322 172.699C60.778 186.955 68.434 200.067 78.378 211.771C82.514 216.611 86.914 221.099 91.666 225.235C95.89 229.019 101.258 232.011 104.426 236.851C108.122 242.395 108.738 249.259 108.386 255.683C107.506 272.667 106.978 288.595 111.818 305.139C116.042 319.835 121.322 334.883 130.122 347.467C134.522 353.715 139.978 360.315 145.962 364.979C150.01 368.147 157.666 368.499 153.266 356.883C143.498 331.099 142.618 304.347 157.842 280.235C170.602 260.171 193.13 242.307 218.562 245.475C255.962 250.139 282.01 284.459 280.162 321.155C279.634 331.451 279.282 340.251 276.026 349.931C274.706 353.803 273.738 358.731 274.706 362.779C276.29 369.643 283.946 367.091 287.29 362.603C296.354 350.283 305.858 338.315 314.394 325.643C342.202 284.107 355.754 236.059 350.738 186.163Z"
    fill="#E53935"
  />
  <path
    d="M141.21 85.051C141.826 87.075 142.442 89.275 142.882 91.651C142.97 92.619 143.234 93.675 143.762 94.643C146.05 100.627 151.594 103.883 156.786 106.963C159.954 108.899 165.674 110.747 169.194 112.155C173.77 114.003 183.626 111.627 188.29 111.275C199.026 110.395 208.97 106.611 218.826 112.331C168.314 171.555 216.01 184.755 252.97 156.243C295.21 123.683 255.434 46.859 255.434 46.859C255.434 46.859 254.554 40.875 238.538 37.355C237.077 36.5793 235.579 35.8745 234.05 35.243C218.21 27.939 203.954 39.907 192.514 49.675C189.17 52.491 185.914 55.307 182.394 57.947C177.642 61.467 172.538 64.371 167.17 66.923C161.538 69.563 154.85 72.555 148.602 72.819C147.722 72.819 146.05 72.995 144.29 73.347C141.562 73.611 140.154 74.315 139.538 75.547C138.482 76.427 137.778 77.659 137.954 79.243C138.13 81.443 139.186 83.291 140.33 84.699C140.682 84.787 140.946 84.963 141.21 85.051Z"
    fill="#E53935"
  />
</svg>
